X: 15
T: Missa Cucu / Agnus Dei
N: Derived from Mar1003e-Missa_Cucu-Agnus.krn
C: Johannes Martini
%%abc-version 2.0
%%abcx-abcm2ps-target-version 5.9.1 (29 Sep 2008)
%%abc-creator hum2abc beta
%%abcx-conversion-date 2019/02/17 07:19:40
%%abc-edited-by Jesse Rodin
%%abc-edited-by Chris Gage 01-22-2014
%%abcx-initial-encoding-date 2015/03/05/
%%humdrum-veritas 1665983420
%%humdrum-veritas-data 2179181993
%%linebreak <none>
%%barnumbers 0
L: 1/4
M: 3/1
Q: 1/2=120
%%staves [1 2 3 4]
V: 1 clef=treble
V: 2 clef=treble-8
V: 3 clef=treble-8
V: 4 clef=bass
K: C
[V:1] A8G4 | 
[V:2] d8B2c2 | 
[V:3] z12 | 
[V:4] D,8E,4 | 
[V:1] F6E2D4 | 
[V:2] d4D2E2F2G2 | 
[V:3] z12 | 
[V:4] D,6C,2_B,,4 | 
[V:1] C2E4DCB,4 | 
[V:2] A2c4BA^G4 | 
[V:3] z12 | 
[V:4] A,,4C,2D,2E,4 | 
[V:1] A,4z2E2F2G2 | 
[V:2] A4c4d2e2 | 
[V:3] z12 | 
[V:4] z2A,,4A,,2D,2C,2 | 
[V:1] A2B3AA3^GG^F | 
[V:2] A2d4c2B4 | 
[V:3] z12 | 
[V:4] F,2G,4A,2E,4 | 
[V:1] A6GFE4 | 
[V:2] A8G4 | 
[V:3] c12 | 
[V:4] A,,8C,4 | 
[V:1] D2F4EDE4 | 
[V:2] F3GA2A3GA2 | 
[V:3] A4c8 | 
[V:4] D,4C,4z2A,,2 | 
[V:1] D4z2D2E2F2 | 
[V:2] D3EFGA2c2d2 | 
[V:3] d8z4 | 
[V:4] B,,2C,2D,4A,,2D,2 | 
[V:1] G2A3GF2E2F2 | 
[V:2] e4c2d2e2d2- | 
[V:3] c4A4z4 | 
[V:4] C,2A,,2z2D,2C,2D,2 | 
[V:1] G3FE2C2D2CB, | 
[V:2] d2G4E2D3C | 
[V:3] _B4G8 | 
[V:4] G,,4C,4B,,4 | 
[V:1] C2E3DD3^C/B,/C2 | 
[V:2] E4z4A4 | 
[V:3] A4G2F2E4 | 
[V:4] A,,2C,4D,2A,,4 | 
[V:1] D4F3GA4 | 
[V:2] B2A2d4c2d2 | 
[V:3] D4A8 | 
[V:4] z2D,4D,2F,3E,/D,/ | 
[V:1] G3F/E/F2D2zEFG | 
[V:2] e4z2A4F2- | 
[V:3] z2c2A2z2c2A2 | 
[V:4] C,4D,4A,,2z2 | 
[V:1] A2B3AA2^G3^F | 
[V:2] F2GAB2cde4 | 
[V:3] z2d4c2B4 | 
[V:4] D,2G,,2G,2A,2E,4 | 
[V:1] A4z2A2A3G/F/ | 
[V:2] e4c4A2c2- | 
[V:3] A12- | 
[V:4] A,,8z4 | 
[V:1] E4D4F4 | 
[V:2] cBc2d2cBA2B2 | 
[V:3] A8F4 | 
[V:4] A,,4D,8 | 
[V:1] E4D2D4CD | 
[V:2] c4A6B2 | 
[V:3] G2A2F8 | 
[V:4] C,4D,8 | 
[V:1] E8F4 | 
[V:2] A4c4d4 | 
[V:3] E4A8 | 
[V:4] A,,8D,4- | 
[V:1] F4G4F2E2 | 
[V:2] A4_B4A4 | 
[V:3] d8c4 | 
[V:4] D,4G,,4A,,4 | 
[V:1] E4z4z4 | 
[V:2] G2A3Bc2d2z2 | 
[V:3] z12 | 
[V:4] C,4D,2E,2F,3E,/D,/ | 
[V:1] z12 | 
[V:2] e2f3e/d/c2d2G2 | 
[V:3] z12 | 
[V:4] C,2D,2z2E,2D,2E,2 | 
[V:1] z12 | 
[V:2] A2B3AA4^G2 | 
[V:3] z12 | 
[V:4] F,2D,2E,2C,2B,,4 | 
[V:1] z12 | 
[V:2] A2B2Azd3Bc3/B/ | 
[V:3] z12 | 
[V:4] A,,2D,3C,D,2E,4 | 
[V:1] z12 | 
[V:2] df2ed2cA2GFA | 
[V:3] z2c2A2z2c2A2 | 
[V:4] D,2C,2D,2A,,2zC,D,A,, | 
[V:1] z2E2F2G2A4 | 
[V:2] GFA2z2c2A2c2 | 
[V:3] z2c2A2z2c2A2 | 
[V:4] B,,2A,,2D,2C,2F,4 | 
[V:1] D2F2E2G3FED | 
[V:2] d4c2e2d2c2- | 
[V:3] z2_B2G2z2_B2G2 | 
[V:4] _B,,4C,3B,,G,,2C,2- | 
[V:1] E2D2z2A4F2 | 
[V:2] c2A3Bc2d3/c/A2 | 
[V:3] z2F2D2z2F2D2 | 
[V:4] C,2D,4A,,2D,2F,2 | 
[V:1] G2E2FGA3^GG^F | 
[V:2] B2c2d2e4e2 | 
[V:3] z2G2A2c2B4 | 
[V:4] E,4D,2A,,2E,4 | 
[V:1] A4E2F3EC2 | 
[V:2] c4z4A4 | 
[V:3] A8z2A2 | 
[V:4] A,,3B,,C,2D,3C,A,,2 | 
[V:1] D2E3DD4^C2 | 
[V:2] B2c4B2A4 | 
[V:3] F2G2A2F2E4 | 
[V:4] D,2C,2A,,2D,2A,,4 | 
[V:1] D2F2E2DCB,4 | 
[V:2] A4c4z2B2 | 
[V:3] D4G8 | 
[V:4] z2D,2C,2D,2E,4 | 
[V:1] A,4z2A2G2E2 | 
[V:2] c2d3cA2z2G2 | 
[V:3] A6d2B2c2 | 
[V:4] A,,2D,4D,2E,4 | 
[V:1] F2G4A4G2 | 
[V:2] A2c2B2A4d2- | 
[V:3] d2e4c2d2B2 | 
[V:4] D,2C,2E,2F,2D,2G,,2 | 
[V:1] F2E4A4^G2 | 
[V:2] d2B2c2e3cde | 
[V:3] A2G2c4B4 | 
[V:4] D,2E,2C,2A,,2E,4 | 
[V:1] A12 ||  
[V:2] c12 ||  
[V:3] A12 ||  
[V:4] A,,12 ||  
[V:1]  [K:C] [K:clef=treble][M:2/1]z8 | 
[V:2]  [K:C] [K:clef=treble-8][M:2/1]A6GF | 
[V:3]  [K:C] [K:clef=treble-8][M:2/1]z8 | 
[V:4]  [K:C] [K:clef=bass][M:2/1]z8 | 
[V:1] E6DC | 
[V:2] G4A4 | 
[V:3] z8 | 
[V:4] z8 | 
[V:1] D4E4 | 
[V:2] B4c2A2- | 
[V:3] z8 | 
[V:4] z8 | 
[V:1] F4G2E2- | 
[V:2] A2GFE4 | 
[V:3] z8 | 
[V:4] z8 | 
[V:1] E2DCB,4 | 
[V:2] z4E4 | 
[V:3] z8 | 
[V:4] z8 | 
[V:1] z4B,4 | 
[V:2] D2d4cB | 
[V:3] z8 | 
[V:4] z8 | 
[V:1] A,2A4GF | 
[V:2] c4d4 | 
[V:3] z8 | 
[V:4] z8 | 
[V:1] G3AB2E2 | 
[V:2] e4E3F | 
[V:3] z8 | 
[V:4] z8 | 
[V:1] z2E2F2G2 | 
[V:2] G2A4B2 | 
[V:3] z8 | 
[V:4] z8 | 
[V:1] A4D2G2 | 
[V:2] c2d2B4 | 
[V:3] z8 | 
[V:4] z8 | 
[V:1] F2E3DD2- | 
[V:2] A4G3A | 
[V:3] z8 | 
[V:4] z8 | 
[V:1] D2C2B,2G,2 | 
[V:2] _B2A3GG2- | 
[V:3] z8 | 
[V:4] z8 | 
[V:1] A,4G,2C2- | 
[V:2] G2F2G2A2 | 
[V:3] z8 | 
[V:4] z8 | 
[V:1] C2D2E4 | 
[V:2] F4E4 | 
[V:3] z8 | 
[V:4] z8 | 
[V:1] D4C4 | 
[V:2] z4E4- | 
[V:3] z8 | 
[V:4] z8 | 
[V:1] B,8 | 
[V:2] E2F2G4 | 
[V:3] z8 | 
[V:4] z8 | 
[V:1] A,4z4 | 
[V:2] A6GF | 
[V:3] z8 | 
[V:4] z8 | 
[V:1] E6F2 | 
[V:2] G4A4 | 
[V:3] z8 | 
[V:4] z8 | 
[V:1] G4A4- | 
[V:2] z4c4 | 
[V:3] z8 | 
[V:4] z8 | 
[V:1] A2GFG4 | 
[V:2] d4B4 | 
[V:3] z8 | 
[V:4] z8 | 
[V:1] F2E4A,2- | 
[V:2] A4c3d | 
[V:3] z8 | 
[V:4] z8 | 
[V:1] A,2D4CB, | 
[V:2] e2f4ed | 
[V:3] z8 | 
[V:4] z8 | 
[V:1] C4D2F2 | 
[V:2] e4d4 | 
[V:3] z8 | 
[V:4] z8 | 
[V:1] E2G3FED | 
[V:2] G3AB2c2- | 
[V:3] z8 | 
[V:4] z8 | 
[V:1] E2A4^G2 | 
[V:2] c2BAB4 | 
[V:3] z8 | 
[V:4] z8 | 
[V:1] A4z4 | 
[V:2] A8 | 
[V:3] z8 | 
[V:4] z8 | 
[V:1] A,4D4 | 
[V:2] z2F4G2 | 
[V:3] z8 | 
[V:4] z8 | 
[V:1] C2F4E2- | 
[V:2] A6G2 | 
[V:3] z8 | 
[V:4] z8 | 
[V:1] E2A4G2 | 
[V:2] A2D2F2G2 | 
[V:3] z8 | 
[V:4] z8 | 
[V:1] F2ED^C3B, | 
[V:2] A2GFE4 | 
[V:3] z8 | 
[V:4] z8 | 
[V:1] D4F4- | 
[V:2] D8 | 
[V:3] z8 | 
[V:4] z8 | 
[V:1] F2EDE2F2- | 
[V:2] A8 | 
[V:3] z8 | 
[V:4] z8 | 
[V:1] FEE2D3C | 
[V:2] G4F4 | 
[V:3] z8 | 
[V:4] z8 | 
[V:1] E4z2A,2 | 
[V:2] E2A3Bc2 | 
[V:3] z8 | 
[V:4] z8 | 
[V:1] B,4A,2C2- | 
[V:2] d3ef2e2- | 
[V:3] z8 | 
[V:4] z8 | 
[V:1] CB,A,2^G,3^F, | 
[V:2] edc2B4 | 
[V:3] z8 | 
[V:4] z8 | 
[V:1] (3:2:2A,8E4- | 
[V:2] (3:2:2A8G4 | 
[V:3] z8 | 
[V:4] z8 | 
[V:1] (3E4F4G4 | 
[V:2] (3A4D4E4 | 
[V:3] z8 | 
[V:4] z8 | 
[V:1] (3A4D4F4 | 
[V:2] (3F4G4A4- | 
[V:3] z8 | 
[V:4] z8 | 
[V:1] (3:2:2E8D4 | 
[V:2] (3:2:2A4G8 | 
[V:3] z8 | 
[V:4] z8 | 
[V:1] (3:2:2D4A8 | 
[V:2] (3:2:2d8f4 | 
[V:3] z8 | 
[V:4] z8 | 
[V:1] (3G4F4_B4- | 
[V:2] (3:2:2e4d8 | 
[V:3] z8 | 
[V:4] z8 | 
[V:1] (3B4A6G2 | 
[V:2] (3d4c4d4 | 
[V:3] z8 | 
[V:4] z8 | 
[V:1] (3F4G6F2 | 
[V:2] (3:2:2A4_B8 | 
[V:3] z8 | 
[V:4] z8 | 
[V:1] A8 ||  
[V:2] A8 ||  
[V:3] z8 ||  
[V:4] z8 ||  



